logos/monday.svg

<?xml version="1.0" encoding="UTF-8"?>
<svg width="512px" height="95px" viewBox="0 0 512 95" version="1.1" xmlns="http://www.w3.org/2000/svg" xmlns:xlink="http://www.w3.org/1999/xlink" preserveAspectRatio="xMidYMid">
    <g>
        <g transform="translate(0.000000, 22.493938)">
            <path d="M10.6149248,51.1611483 C6.77458242,51.1694454 3.226802,49.1107421 1.32853858,45.7723449 C-0.542361676,42.4544917 -0.430171419,38.3751293 1.62025752,35.1651202 L20.7440545,5.13427627 C22.7367518,1.84839764 26.3432621,-0.111191208 30.1844035,0.00488494986 C34.0227489,0.0968672046 37.5140641,2.24894177 39.3208785,5.6366811 C41.1036054,9.00765549 40.8807645,13.063359 38.7455439,16.2276992 L19.6339019,46.2585431 C17.6641633,49.3279411 14.2619523,51.1773011 10.6149248,51.1611483 L10.6149248,51.1611483 Z" fill="#F62B54"></path>
            <path d="M43.4170986,51.1610783 C39.559926,51.1610783 36.0106789,49.0987511 34.146919,45.7844999 C32.2801678,42.4756448 32.3923747,38.4065879 34.438638,35.2056367 L53.5259701,5.24367087 C55.4898989,1.91063795 59.1071034,-0.0949561312 62.9744224,0.00488494986 C66.8640082,0.0899696399 70.3889453,2.26570671 72.1716722,5.66909432 C73.9422441,9.07248192 73.6829383,13.1524954 71.4828914,16.3087322 L52.3996109,46.2706981 C50.436104,49.3268025 47.0495969,51.1705165 43.4170986,51.1610783 Z" fill="#FFCC00"></path>
            <ellipse fill="#00CA72" cx="75.4859275" cy="41.7733645" rx="9.84551454" ry="9.63887948"></ellipse>
        </g>
        <path d="M503.202609,55.1875506 C506.176521,55.1875506 507.955196,57.3025129 507.955196,60.7666753 L507.955196,72.6380154 L511.994693,72.6380154 L511.994693,60.4952146 C511.994693,54.6041128 509.219312,51.1885702 504.000784,51.1885702 C501.958752,51.1885702 498.71743,51.7476982 496.784792,55.5035795 C495.869893,53.2464791 493.788958,51.6744937 491.367734,51.4114111 C490.619714,51.2744323 489.857739,51.2295302 489.098808,51.2777065 C487.437631,51.4114111 484.479925,52.4445823 483.373824,54.7864371 L483.373824,51.6383036 L479.330276,51.6383036 L479.330276,72.6380154 L483.373824,72.6380154 L483.373824,61.305545 C483.373824,56.8973477 486.2586,55.1875506 489.147428,55.1875506 C491.853932,55.1875506 493.632607,57.2579448 493.632607,60.7221071 L493.632607,72.6380154 L497.651846,72.6380154 L497.651846,61.305545 C497.651846,57.7968145 499.758705,55.1470341 503.202609,55.1875506 L503.202609,55.1875506 Z M464.489075,69.1292849 C466.336628,69.1698014 468.119355,68.4324007 469.411832,67.0953556 C470.70836,65.7583105 471.397141,63.9391188 471.328263,62.0713072 C471.328263,57.8413826 468.216595,55.1875506 464.489075,55.1875506 C460.757503,55.1875506 457.649886,57.8413826 457.649886,62.0713072 C457.576957,63.9350671 458.265737,65.7502072 459.554163,67.0832006 C460.842588,68.4202458 462.617212,69.1616981 464.456662,69.1292849 L464.489075,69.1292849 Z M464.489075,73.0674905 C458.581766,73.0674905 453.650906,68.7038614 453.650906,62.0469973 C453.650906,55.3901332 458.581766,51.1642603 464.489075,51.1642603 C470.396383,51.1642603 475.36776,55.3901332 475.36776,62.0469973 C475.36776,68.7038614 470.368022,73.0877488 464.460713,73.0877488 L464.489075,73.0674905 Z M432.845673,62.0469973 L432.805157,62.0713072 C432.805157,55.4144431 437.86567,51.1885702 443.813495,51.1642603 C446.835152,51.1057984 449.740013,52.3307576 451.807404,54.5352347 L448.744355,57.1444985 C447.430247,55.8541316 445.655044,55.1423002 443.813495,55.1672924 C440.085975,55.1672924 436.844654,57.8211244 436.844654,62.0469973 C436.844654,64.9034119 438.542296,67.4762109 441.147508,68.5701569 C443.75272,69.6641029 446.750943,69.0563551 448.744355,67.0386325 L451.851972,69.6478963 C449.777943,71.875108 446.856442,73.1179237 443.813495,73.0674905 C437.910238,73.0674905 432.845673,68.7038614 432.845673,62.0469973 L432.845673,62.0469973 Z M419.908749,68.6066218 C419.900102,67.8651573 420.186381,67.1506316 420.704597,66.6202579 C421.222814,66.0898841 421.93051,65.7871156 422.671975,65.7785687 C423.413441,65.7871156 424.121137,66.0898841 424.639353,66.6202579 C425.15757,67.1506316 425.443849,67.8651573 425.435202,68.6066218 C425.36032,70.0825246 424.149698,71.2452182 422.671975,71.2604538 C421.194253,71.2452182 419.983631,70.0825246 419.908749,68.6066218 L419.908749,68.6066218 Z" fill="#333333"></path>
        <path d="M430.961655,24.9419691 L416.574239,24.9419691 L406.489678,50.9414194 L396.457788,24.9419691 L382.070372,24.9419691 L399.561353,66.0257195 L388.682668,93.1879939 L402.964741,93.1879939 L430.961655,24.9419691 Z M343.462181,47.7932859 C343.462181,54.356962 349.19932,58.6760229 354.835168,58.6760229 C360.373776,58.6760229 365.815144,54.6567842 365.815144,47.7892343 C365.815144,40.9216843 360.373776,36.8983939 354.835168,36.8983939 C349.19932,36.8983939 343.462181,41.2215065 343.462181,47.7892343 L343.462181,47.7932859 Z M365.815144,70.733739 L365.815144,65.5354696 C362.897955,69.9517702 356.09118,71.6210508 352.598656,71.6210508 C341.035241,71.6210508 329.467775,62.504834 329.467775,47.7892343 C329.467775,33.0776862 341.031189,23.9614694 352.598656,23.9614694 C355.511793,23.9614694 362.318569,24.9338658 365.815144,30.0389472 L365.815144,24.9581758 L379.226112,24.9581758 L379.226112,70.7418423 L365.815144,70.7377907 L365.815144,70.733739 Z M325.651119,70.733739 L312.240151,70.733739 L312.240151,65.0452197 C309.999588,69.2589377 304.566322,71.7142388 298.926423,71.7142388 C287.261717,71.7142388 276.958366,62.399491 276.958366,47.9756102 C276.958366,33.2802688 287.261717,23.9533661 298.926423,23.9533661 C304.558219,23.9533661 310.007691,26.3033242 312.240151,30.5210938 L312.240151,0 L325.651119,0 L325.651119,70.733739 Z M311.948432,47.687943 C311.948432,40.8244446 306.993262,36.8011543 301.454654,36.8011543 C295.717515,36.8011543 290.952772,41.1161636 290.952772,47.687943 C290.952772,54.4704082 295.717515,58.7651702 301.450602,58.7651702 C307.094553,58.7732626 311.948432,54.2597223 311.948432,47.687943 L311.948432,47.687943 Z M243.799647,46.5048606 C243.799647,39.5441226 247.397514,37.1901129 252.158205,37.1901129 C256.724417,37.1901129 260.030565,40.2288518 260.030565,46.3063297 L260.030565,70.7256357 L273.538772,70.7256357 L273.538772,43.368882 C273.538772,30.3306662 267.120955,23.9533661 256.914844,23.9533661 C251.570715,23.9533661 246.226586,26.992105 243.795595,31.6028849 L243.795595,24.9419691 L230.295491,24.9419691 L230.295491,70.7256357 L243.799647,70.7256357 L243.799647,46.5048606 Z M202.865808,71.5116562 C190.038278,71.5116562 179.337865,62.0996688 179.337865,47.6838913 C179.337865,33.2600105 190.026123,23.9412111 202.865808,23.9412111 C215.705493,23.9412111 226.486938,33.2600105 226.486938,47.6838913 C226.486938,62.1077721 215.693338,71.5157078 202.865808,71.5157078 L202.865808,71.5116562 Z M202.865808,58.1817214 C208.497604,58.1817214 213.169159,54.0571398 213.169159,47.687943 C213.169159,41.5091738 208.501656,37.2914042 202.865808,37.2914042 C200.12336,37.2484935 197.483677,38.3339567 195.564731,40.2936782 C193.63509,42.2633848 192.586848,44.9315049 192.659697,47.687943 C192.663748,54.0652431 197.3272,58.1817214 202.865808,58.1817214 L202.865808,58.1817214 Z M155.121142,37.1941645 C159.103916,37.1941645 162.604543,40.3341947 162.604543,46.3103813 L162.604543,70.733739 L176.015511,70.733739 L176.015511,44.7302371 C176.015511,30.9060008 169.29382,23.9452628 158.520478,23.9452628 C155.319673,23.9452628 149.290815,24.9176592 144.915031,32.0809798 C142.3868,26.7854708 137.528869,24.0384508 130.349342,24.0384508 C125.258342,24.0125547 120.62244,26.9658427 118.494208,31.5907299 L118.494208,24.9460208 L104.977898,24.9460208 L104.977898,70.7296874 L118.482053,70.7296874 L118.482053,46.5048606 C118.482053,39.5441226 122.2744,37.1901129 126.354413,37.1901129 C130.243999,37.1901129 133.736523,40.2288518 133.837814,46.0146107 L133.837814,70.7296874 L147.346022,70.7296874 L147.346022,46.5048606 C147.346022,39.8479965 150.846649,37.1982162 155.121142,37.1982162 L155.121142,37.1941645 Z" fill="#333333"></path>
    </g>
</svg>

<svg preserveAspectRatio="xMidYMid" viewBox="0 0 512 95" xmlns="http://www.w3.org/2000/svg">
  <g transform="translate(0 22.494)">
    <path fill="#F62B54" d="M10.615 51.161a10.656 10.656 0 0 1-9.286-5.389 10.303 10.303 0 0 1 .291-10.607l19.124-30.03a10.664 10.664 0 0 1 9.44-5.13 10.644 10.644 0 0 1 9.137 5.632 10.294 10.294 0 0 1-.575 10.59L19.634 46.26a10.66 10.66 0 0 1-9.02 4.902Z"/>
    <path fill="#FC0" d="M43.417 51.161c-3.857 0-7.406-2.062-9.27-5.377a10.27 10.27 0 0 1 .292-10.578L53.526 5.244a10.648 10.648 0 0 1 9.448-5.24c3.89.086 7.415 2.262 9.198 5.665a10.27 10.27 0 0 1-.69 10.64L52.4 46.27a10.644 10.644 0 0 1-8.983 4.89Z"/>
    <ellipse cx="75.486" cy="41.773" fill="#00CA72" rx="9.846" ry="9.639"/>
  </g>
  <path fill="#333" d="M503.203 55.188c2.974 0 4.752 2.115 4.752 5.579v11.871h4.04V60.495c0-5.89-2.776-9.306-7.994-9.306-2.042 0-5.284.559-7.216 4.315a6.616 6.616 0 0 0-5.417-4.093 9.319 9.319 0 0 0-2.27-.133c-1.66.133-4.618 1.167-5.724 3.508v-3.148h-4.044v21h4.044V61.306c0-4.409 2.885-6.118 5.773-6.118 2.707 0 4.486 2.07 4.486 5.534v11.916h4.019V61.306c0-3.51 2.107-6.159 5.55-6.118Zm-38.714 13.941a6.646 6.646 0 0 0 4.923-2.034 6.854 6.854 0 0 0 1.916-5.024c0-4.23-3.111-6.883-6.839-6.883-3.731 0-6.84 2.653-6.84 6.883a6.832 6.832 0 0 0 1.905 5.012 6.65 6.65 0 0 0 4.903 2.046h.032Zm0 3.938c-5.907 0-10.838-4.363-10.838-11.02 0-6.657 4.93-10.883 10.838-10.883 5.907 0 10.879 4.226 10.879 10.883 0 6.657-5 11.04-10.907 11.04l.028-.02Zm-31.643-11.02-.04.024c0-6.657 5.06-10.882 11.007-10.907a10.676 10.676 0 0 1 7.994 3.371l-3.063 2.61a6.904 6.904 0 0 0-4.93-1.978c-3.728 0-6.97 2.654-6.97 6.88 0 2.856 1.698 5.43 4.304 6.523a6.907 6.907 0 0 0 7.596-1.531l3.108 2.609a10.74 10.74 0 0 1-8.039 3.42c-5.903 0-10.967-4.364-10.967-11.021Zm-12.937 6.56a2.796 2.796 0 0 1 2.763-2.828 2.796 2.796 0 0 1 2.763 2.828 2.796 2.796 0 0 1-2.763 2.653 2.796 2.796 0 0 1-2.763-2.653Z"/>
  <path fill="#333" d="M430.962 24.942h-14.388l-10.084 26-10.032-26H382.07l17.491 41.084-10.878 27.162h14.282l27.997-68.246Zm-87.5 22.851c0 6.564 5.737 10.883 11.373 10.883 5.539 0 10.98-4.02 10.98-10.887 0-6.867-5.441-10.89-10.98-10.89-5.636 0-11.373 4.323-11.373 10.89v.004Zm22.353 22.94v-5.198c-2.917 4.417-9.724 6.086-13.216 6.086-11.564 0-23.131-9.116-23.131-23.832 0-14.711 11.563-23.828 23.13-23.828 2.914 0 9.72.973 13.217 6.078v-5.08h13.411v45.783l-13.41-.004v-.004Zm-40.164 0h-13.41v-5.688c-2.241 4.214-7.675 6.67-13.315 6.67-11.664 0-21.968-9.316-21.968-23.74 0-14.695 10.304-24.022 21.968-24.022 5.632 0 11.082 2.35 13.314 6.568V0h13.411v70.734Zm-13.703-23.045c0-6.864-4.955-10.887-10.493-10.887-5.737 0-10.502 4.315-10.502 10.887 0 6.782 4.765 11.077 10.498 11.077 5.644.008 10.497-4.505 10.497-11.077ZM243.8 46.505c0-6.96 3.598-9.315 8.358-9.315 4.566 0 7.873 3.039 7.873 9.116v24.42h13.508V43.369c0-13.038-6.418-19.416-16.624-19.416-5.344 0-10.688 3.04-13.12 7.65v-6.661h-13.5v45.784H243.8V46.505Zm-40.934 25.007c-12.828 0-23.528-9.412-23.528-23.828 0-14.424 10.688-23.743 23.528-23.743 12.84 0 23.62 9.319 23.62 23.743 0 14.424-10.793 23.832-23.62 23.832v-.004Zm0-13.33c5.632 0 10.303-4.125 10.303-10.494 0-6.179-4.667-10.397-10.303-10.397a10 10 0 0 0-7.301 3.003 10.182 10.182 0 0 0-2.905 7.394c.004 6.377 4.667 10.494 10.206 10.494ZM155.12 37.194c3.983 0 7.484 3.14 7.484 9.116v24.424h13.41V44.73c0-13.824-6.721-20.785-17.495-20.785-3.2 0-9.23.973-13.605 8.136-2.528-5.296-7.386-8.043-14.566-8.043a12.977 12.977 0 0 0-11.855 7.553v-6.645h-13.516V70.73h13.504V46.505c0-6.96 3.792-9.315 7.872-9.315 3.89 0 7.383 3.039 7.484 8.825V70.73h13.508V46.505c0-6.657 3.5-9.307 7.775-9.307v-.004Z"/>
</svg>
